assets/images/svg/rocket.svg

<svg width="89" height="98" viewBox="0 0 89 98" fill="none" xmlns="http://www.w3.org/2000/svg">
<path d="M30.4911 64.2441C23.4952 72.5208 12.9444 80.438 0.500244 91.1313L17.4797 84.2108C15.3978 87.6614 12.3658 92.4895 10.6655 94.5604C14.5791 92.7537 20.8766 88.7796 22.9624 86.6728C22.961 89.613 19.4194 94.5308 17.8755 97.2175C26.9319 89.4665 35.171 80.0037 37.8326 71.6913L30.4911 64.2441Z" fill="#FFA121"/>
<path d="M57.3763 16.117C47.03 25.1735 29.1859 18.9312 23.6411 26.1632L39.4856 38.7101L57.3763 16.117Z" fill="#FF6150"/>
<path d="M23.6412 26.1634C22.8482 28.2731 23.2781 30.6478 24.7604 32.3454L35.9879 45.2056L39.4857 38.7101L23.6412 26.1634Z" fill="#FF6150"/>
<path d="M80.8262 34.6862C74.3822 46.8329 84.5483 62.771 78.7798 69.8261L62.9351 57.2793L80.8262 34.6862Z" fill="#FF6150"/>
<path d="M78.78 69.8261C76.9083 71.0816 74.4982 71.2074 72.506 70.1538L57.4146 62.1728L62.9352 57.2794L78.78 69.8261Z" fill="#FF6150"/>
<path d="M88.8759 0.549561L74.7694 5.72844L87.0683 15.4677L88.8759 0.549561Z" fill="#072448"/>
<path d="M87.0683 15.4678C85.0977 37.7896 68.6045 58.6178 48.573 70.1869L30.3182 55.7468C37.9779 31.6475 52.2433 14.4025 74.7692 5.72845L87.0683 15.4678Z" fill="#F8AA4B"/>
<path d="M30.3182 55.7468L22.4004 61.2293L45.0487 79.1637L48.573 70.1869L30.3182 55.7468Z" fill="#FF6150"/>
<path d="M69.4731 33.5239C74.1522 33.5239 77.9453 29.7308 77.9453 25.0518C77.9453 20.3727 74.1522 16.5796 69.4731 16.5796C64.7941 16.5796 61.001 20.3727 61.001 25.0518C61.001 29.7308 64.7941 33.5239 69.4731 33.5239Z" fill="white"/>
<path d="M70.1139 31.0558L70.06 30.5479C70.5459 30.496 71.0231 30.3804 71.4791 30.2034L71.6634 30.6799C71.1663 30.873 70.6445 30.9994 70.1139 31.0558ZM68.5191 31.0154C67.9909 30.9316 67.4763 30.7778 66.9904 30.5579L67.2009 30.0925C67.6453 30.2933 68.1158 30.4343 68.599 30.5109L68.5191 31.0154ZM73.0613 29.9103L72.7581 29.4998C73.1492 29.2103 73.5024 28.8687 73.8071 28.4833L74.2071 28.8006C73.8743 29.2209 73.4892 29.5942 73.0613 29.9103ZM65.6373 29.7147C65.2227 29.3741 64.8566 28.9819 64.5489 28.5483L64.9649 28.2527C65.2466 28.6492 65.5819 29.0084 65.9613 29.3204L65.6373 29.7147ZM74.8313 27.8396L74.3783 27.6036C74.6039 27.1704 74.7708 26.7089 74.875 26.2308L75.3739 26.3397C75.2601 26.8617 75.0775 27.3664 74.8313 27.8396ZM63.805 27.1365C63.6219 26.6366 63.5047 26.1127 63.4579 25.5797L63.9666 25.5349C64.0099 26.0232 64.1168 26.5028 64.2849 26.9604L63.805 27.1365ZM74.9947 24.7753C74.9692 24.2858 74.8797 23.8024 74.7293 23.3386L75.2152 23.1811C75.3798 23.6873 75.4769 24.2149 75.5043 24.7489L74.9947 24.7753ZM64.031 24.0759L63.528 23.9861C63.622 23.4595 63.786 22.9486 64.0151 22.4668L64.476 22.6858C64.267 23.1267 64.1168 23.5944 64.031 24.0759ZM74.0984 22.0222C73.8316 21.615 73.5098 21.2432 73.1426 20.9179L73.4818 20.5359C73.8822 20.8914 74.2335 21.2971 74.5252 21.7425L74.0984 22.0222ZM65.2709 21.4606L64.8832 21.1288C65.2307 20.7212 65.6297 20.3626 66.0692 20.0623L66.3577 20.4842C65.9548 20.759 65.5897 21.0873 65.2709 21.4606ZM71.9329 20.1003C71.4955 19.8827 71.0303 19.7241 70.5512 19.6293L70.6498 19.1279C71.1737 19.2317 71.682 19.4048 72.1603 19.6428L71.9329 20.1003ZM67.6618 19.8289L67.4953 19.3461C67.9985 19.1723 68.5244 19.0652 69.0574 19.0278L69.0934 19.5376C68.6045 19.5715 68.1233 19.6696 67.6618 19.8289Z" fill="#9192FF"/>
<path d="M27.7259 78.1867L27.322 77.8669C26.7295 77.3979 26.6284 76.5291 27.0977 75.9366L42.9857 55.8727C43.455 55.2802 44.3238 55.1792 44.9163 55.6483L45.3202 55.9681C45.9127 56.4372 46.0136 57.3059 45.5445 57.8984L29.6563 77.9624C29.187 78.5549 28.3184 78.6558 27.7259 78.1867Z" fill="#072448"/>
</svg>

<svg xmlns="http://www.w3.org/2000/svg" width="89" height="98" fill="none"><path fill="#FFA121" d="M30.491 64.244C23.495 72.521 12.944 80.438.501 91.131l16.979-6.92c-2.082 3.45-5.114 8.279-6.815 10.35 3.914-1.807 10.212-5.781 12.297-7.888-.001 2.94-3.543 7.858-5.087 10.544 9.057-7.75 17.296-17.213 19.958-25.526l-7.342-7.447Z"/><path fill="#FF6150" d="M57.376 16.117c-10.346 9.056-28.19 2.814-33.735 10.046L39.486 38.71l17.89-22.593Z"/><path fill="#FF6150" d="M23.641 26.163a6.123 6.123 0 0 0 1.12 6.182l11.227 12.86 3.498-6.495L23.64 26.163ZM80.826 34.686c-6.444 12.147 3.722 28.085-2.046 35.14L62.935 57.28l17.891-22.593Z"/><path fill="#FF6150" d="M78.78 69.826a6.124 6.124 0 0 1-6.274.328l-15.091-7.981 5.52-4.894L78.78 69.826Z"/><path fill="#072448" d="M88.876.55 74.769 5.728l12.3 9.74L88.875.55Z"/><path fill="#F8AA4B" d="M87.068 15.468c-1.97 22.322-18.463 43.15-38.495 54.719l-18.255-14.44c7.66-24.1 21.925-41.345 44.451-50.019l12.3 9.74Z"/><path fill="#FF6150" d="M30.318 55.747 22.4 61.229 45.05 79.164l3.524-8.977-18.255-14.44Z"/><path fill="#fff" d="M69.473 33.524a8.472 8.472 0 1 0 0-16.944 8.472 8.472 0 0 0 0 16.944Z"/><path fill="#9192FF" d="m70.114 31.056-.054-.508a5.55 5.55 0 0 0 1.42-.345l.183.477a6.047 6.047 0 0 1-1.55.376Zm-1.595-.04a5.982 5.982 0 0 1-1.529-.458l.21-.465c.445.2.916.341 1.399.418l-.08.504Zm4.542-1.106-.303-.41c.391-.29.744-.631 1.05-1.017l.4.318a6.04 6.04 0 0 1-1.147 1.11Zm-7.424-.195a6.018 6.018 0 0 1-1.088-1.167l.416-.295c.282.396.617.755.996 1.067l-.324.395Zm9.194-1.875-.453-.236c.226-.434.393-.895.497-1.373l.499.109a6.036 6.036 0 0 1-.543 1.5Zm-11.026-.703c-.183-.5-.3-1.024-.347-1.557l.509-.045c.043.488.15.968.318 1.425l-.48.177Zm11.19-2.362a5.605 5.605 0 0 0-.266-1.436l.486-.158a6.08 6.08 0 0 1 .29 1.568l-.51.026Zm-10.964-.7-.503-.089a5.988 5.988 0 0 1 .487-1.52l.461.22c-.209.44-.36.908-.445 1.39Zm10.067-2.053a5.514 5.514 0 0 0-.955-1.104l.339-.382c.4.355.752.761 1.043 1.206l-.427.28Zm-8.827-.561-.388-.332a6.028 6.028 0 0 1 1.186-1.067l.289.422a5.52 5.52 0 0 0-1.087.977Zm6.662-1.36a5.501 5.501 0 0 0-1.382-.472l.099-.501a6.016 6.016 0 0 1 1.51.515l-.227.457Zm-4.271-.272-.167-.483a6.094 6.094 0 0 1 1.562-.318l.036.51c-.489.034-.97.132-1.431.29Z"/><path fill="#072448" d="m27.726 78.187-.404-.32a1.378 1.378 0 0 1-.224-1.93l15.888-20.064a1.379 1.379 0 0 1 1.93-.225l.404.32c.593.47.694 1.338.224 1.93L29.657 77.962a1.378 1.378 0 0 1-1.93.225Z"/></svg>
